X: 9
T: Health To The Ladies
Z: JACKB
S: https://thesession.org/tunes/327#setting51839
R: jig
M: 6/8
L: 1/8
K: Gmaj
|:g|dBG AGE|GED DEG|A3 AGA|BAA A2 g|
dBG AGE|GED DEG|A3 AGA|BGG G2:|
|:A|Bdd cee|Bdd dBG|Bdd g2e|dBG A2 G|
Bdd cee|Bdd dBG|A3 AGA|BGG G2:|

%-------------------- TUNE SEPARATOR --------------------%

